images/favicon.svg

<svg width="512" height="512" fill="none" xmlns="http://www.w3.org/2000/svg"><circle cx="256" cy="256" r="256" fill="#336C8F"/><path d="M406.706 346.373c19.744 0 34.892-6.475 45.443-19.424 10.472-13.03 15.707-31.574 15.707-55.635v-29.375c0-23.981-5.435-42.446-16.306-55.395C440.679 173.515 425.571 167 406.227 167c-.562 0-1.066.005-1.619.014 5.307 11.112 6.422 17.747 7.68 29.767 6.291 1.173 10.945 4.316 13.962 9.427 3.917 6.554 5.996 17.386 6.235 32.493v32.973c0 17.346-1.918 29.256-5.755 35.731-2.549 4.214-6.267 7.057-11.154 8.528-3.347 13.422-6.275 20.079-13.021 30.354a99.14 99.14 0 004.151.086zM105.15 346.373c-19.744 0-34.892-6.475-45.443-19.424C49.236 313.919 44 295.375 44 271.314v-29.375c0-23.981 5.435-42.446 16.307-55.395C71.177 173.515 86.285 167 105.629 167c.562 0 1.066.005 1.62.014-5.308 11.112-6.422 17.747-7.68 29.767-6.292 1.173-10.946 4.316-13.963 9.427-3.917 6.554-5.995 17.386-6.235 32.493v32.973c0 17.346 1.918 29.256 5.755 35.731 2.55 4.214 6.268 7.057 11.154 8.528 3.347 13.422 6.275 20.079 13.021 30.354a99.14 99.14 0 01-4.151.086z" fill="#DBB839"/><path d="M313.539 320.613h72.317v32.218H272.335V160.577h41.204v160.036zM216.058 302.617c0-7.952-2.102-13.938-6.306-17.958-4.113-4.11-11.652-8.354-22.619-12.732-20.014-7.416-34.408-16.083-43.182-26-8.773-10.007-13.16-21.8-13.16-35.381 0-16.44 5.941-29.618 17.821-39.536 11.972-10.007 27.143-15.01 45.512-15.01 12.246 0 23.168 2.546 32.763 7.639 9.596 5.004 16.953 12.107 22.071 21.309 5.209 9.203 7.814 19.656 7.814 31.361h-40.166c0-9.114-2.01-16.038-6.032-20.773-3.929-4.825-9.641-7.237-17.135-7.237-7.037 0-12.521 2.055-16.45 6.165-3.93 4.02-5.895 9.47-5.895 16.35 0 5.361 2.193 10.23 6.58 14.608 4.387 4.289 12.155 8.756 23.305 13.402 19.465 6.88 33.585 15.323 42.359 25.33 8.864 10.006 13.297 22.738 13.297 38.195 0 16.976-5.529 30.244-16.587 39.804-11.059 9.56-26.092 14.34-45.101 14.34-12.886 0-24.63-2.591-35.231-7.773-10.601-5.182-18.917-12.598-24.949-22.247-5.94-9.65-8.911-21.041-8.911-34.175h40.44c0 11.257 2.239 19.433 6.717 24.525 4.478 5.093 11.79 7.639 21.934 7.639 14.074 0 21.111-7.281 21.111-21.845z" fill="#fff"/></svg>

<svg width="512" height="512" viewBox="0 0 512 512" fill="none" xmlns="http://www.w3.org/2000/svg">
<circle cx="256" cy="256" r="256" fill="#336C8F"/>
<path d="M406.706 346.373C426.45 346.373 441.598 339.898 452.149 326.949C462.621 313.919 467.856 295.375 467.856 271.314L467.856 241.939C467.856 217.958 462.421 199.493 451.55 186.544C440.679 173.515 425.571 167 406.227 167C405.665 167 405.161 167.005 404.608 167.014C409.915 178.126 411.03 184.761 412.288 196.781C418.579 197.954 423.233 201.097 426.25 206.208C430.167 212.762 432.246 223.594 432.485 238.701L432.485 271.674C432.485 289.02 430.567 300.93 426.73 307.405C424.181 311.619 420.463 314.462 415.576 315.933C412.229 329.355 409.301 336.012 402.555 346.287C403.915 346.344 405.299 346.373 406.706 346.373Z" fill="#DBB839"/>
<path d="M105.15 346.373C85.406 346.373 70.2585 339.898 59.7071 326.949C49.2357 313.919 44 295.375 44 271.314L44 241.939C44 217.958 49.4355 199.493 60.3066 186.544C71.1777 173.515 86.2853 167 105.629 167C106.191 167 106.695 167.005 107.249 167.014C101.941 178.126 100.827 184.761 99.5683 196.781C93.2774 197.954 88.6233 201.097 85.6059 206.208C81.6891 212.762 79.6108 223.594 79.371 238.701L79.371 271.674C79.371 289.02 81.2894 300.93 85.1263 307.405C87.6757 311.619 91.3936 314.462 96.2799 315.933C99.6275 329.355 102.555 336.012 109.301 346.287C107.941 346.344 106.557 346.373 105.15 346.373Z" fill="#DBB839"/>
<path d="M313.539 320.613H385.856V352.831H272.335V160.577H313.539V320.613Z" fill="white"/>
<path d="M216.058 302.617C216.058 294.665 213.956 288.679 209.752 284.659C205.639 280.549 198.1 276.305 187.133 271.927C167.119 264.511 152.725 255.844 143.951 245.927C135.178 235.92 130.791 224.127 130.791 210.546C130.791 194.106 136.732 180.928 148.612 171.01C160.584 161.003 175.755 156 194.124 156C206.37 156 217.292 158.546 226.887 163.639C236.483 168.643 243.84 175.746 248.958 184.948C254.167 194.151 256.772 204.604 256.772 216.309L216.606 216.309C216.606 207.195 214.596 200.271 210.574 195.536C206.645 190.711 200.933 188.299 193.439 188.299C186.402 188.299 180.918 190.354 176.989 194.464C173.059 198.484 171.094 203.934 171.094 210.814C171.094 216.175 173.287 221.044 177.674 225.422C182.061 229.711 189.829 234.178 200.979 238.824C220.444 245.704 234.564 254.147 243.338 264.154C252.202 274.16 256.635 286.892 256.635 302.349C256.635 319.325 251.106 332.593 240.048 342.153C228.989 351.713 213.956 356.493 194.947 356.493C182.061 356.493 170.317 353.902 159.716 348.72C149.115 343.538 140.799 336.122 134.767 326.473C128.827 316.823 125.856 305.432 125.856 292.298L166.296 292.298C166.296 303.555 168.535 311.731 173.013 316.823C177.491 321.916 184.803 324.462 194.947 324.462C209.021 324.462 216.058 317.181 216.058 302.617Z" fill="white"/>
</svg>
